X:1
T:Title
%%score 1 { 2 | 3 }
L:1/8
Q:1/4=100
M:4/4
K:D
V:1 treble nm="Grand Piano, Soprano"
V:2 bass nm="Choir Pad, When the Bridegroom Calleth"
V:3 bass 
V:1
 [DF]>[EG] [FA]2 [DF]2 [EG]>[DF] | [DG]>[DB] [DA]6 | D>[DE] [DF]2- [DF][DG] [DF]2 | [CE]2 D6 | %4
w: By~Matthew~Lindsay~McPhail * * * * *||||
 [DF]>[EG] [FA]2 [DF]2 [DG]>[DF] | [DG]>[DB] [DA]6 | D>[DE] [DF]2- [DF][DG] [DF]2 | [CE]2 D6 | %8
w: ||||
 [FA]>[FA] [Fd]4- [Fd]>[Ge] | [Fd]>[GB] [FA]4 [DF]2 | [DF]>[FA] [FA]4 [EG]2 | %11
w: |||
 [EG]>[GB] [GB]4 [FA]2 | [FA]>[FA] [Fd]4- [Fd]>[Ge] | [Fd]>[GB] [FA]4 [DF]2 | %14
w: |||
 [DF]>[FA] [FA]4 [EG]2 | [CE]2 D6- | D2 z2 z4 |] %17
w: |||
V:2
 A,>A, D2 A,2 B,>A, | B,>G, F,6 | F,>G, A,2- A,B, A,2 | G,2 F,6 | A,>A, D2 A,2 B,>A, | B,>G, F,6 | %6
 F,>G, A,2- A,B, A,2 | G,2 F,6 | D>D A,>A, A,>A, A,>A, | A,>[K:treble]D D>D D>D[K:bass] A,>A, | %10
 A,>D C>[K:treble]C C>C C>C | C>C D>D D>D D2 | D>D[K:bass] A,>A, A,>A, A,>A, | %13
 A,>[K:treble]D D>D D>D[K:bass] A,>A, | A,>A, A,>A, A,>A, A,>A, | A,>A, F,6- | F,2 z2 z4 |] %17
V:3
 D,>D, D,2 D,2 D,>D, | D,>D, D,6 | D,>D, D,2- D,G, z2 | A,,2 D,6 | D,>D, D,2 D,2 D,>D, | %5
 D,>D, D,6 | D,>D, D,2- D,G,, A,,2 | A,,2 D,6 | D,>D, D,>D, D,>D, D,>D, | D,>D, D,>D, D,>D, D,>D, | %10
 D,>D, A,,>A,, A,,>A,, A,,>A,, | A,,>A,, D,>D, D,>D, D,2 | D,>D, D,>D, D,>D, D,>D, | %13
 D,>D, D,>D, D,>D, D,>D, | D,>D, A,,>A,, A,,>A,, A,,>A,, | A,,>A,, D,6- | D,2 z2 z4 |] %17

